X:1
T:Title
L:1/8
Q:1/4=140
M:3/4
K:Db
V:1 treble nm="Grand Piano"
V:1
 D4 C2 | B,4 B,2 | B4 GA | G4 F2 | D4 C2 | B,4 B,2 | c4 A2 | G6 | c3 B =AB | c3 =A GF | d3 c Bc | %11
w: ????~????~?????~???? *|||||||||||
 d3 c B2 | c4 A2 | G4 G2 | B4 G2 | F6 | c3 B =AB | c3 =A GF | d3 c Bc | d3 c B2 | c4 A2 | G4 G2 | %22
w: |||||||||||
 B4 G2 | F6 | E6 | =A6 | B6 |] %27
w: |||||

